!!!COM: Bartók, Béla
!!!OTL: Piano Concerto No. 2
!!!OMV: I: Allegro
!!!example: 342
!!!work: Bar-40
**kern	**kern	**dynam	**kern	**dynam	**kern	**dynam	**kern	**dynam	**kern	**dynam	**kern	**dynam	**kern	**dynam	**kern	**kern	**dynam	**kern	**dynam	**kern	**dynam	**kern	**dynam	**kern	**dynam
*part13	*part13	*part13	*part12	*part12	*part11	*part11	*part10	*part10	*part9	*part9	*part8	*part8	*part7	*part7	*part6	*part5	*part5	*part4	*part4	*part3	*part3	*part2	*part2	*part1	*part1
*staff14	*staff13	*	*staff12	*	*staff11	*	*staff10	*	*staff9	*	*staff8	*	*staff7	*	*staff6	*staff5	*	*staff4	*	*staff3	*	*staff2	*	*staff1	*
*I"Piano	*	*	*I"Percussion	*	*I"Timpani	*	*I"Trombone	*	*I"Trombone	*	*I"Horn in F	*	*I"Horn in F	*	*I"Contrabassoon	*I"Bassoon	*	*I"Clarinet in Bb	*	*I"Oboe	*	*I"Flute	*	*I"Piccolo	*
*I'Pno.	*	*	*I'Perc.	*	*I'Timp.	*	*I'Tbn.	*	*I'Tbn.	*	*I'Hn.	*	*I'Hn.	*	*I'Cbsn.	*I'Bsn.	*	*I'Cl.	*	*I'Ob.	*	*I'Fl.	*	*I'Picc.	*
*clefF4	*clefG2	*	*clefpercussion0	*	*clefF4	*	*clefF4	*	*clefF4	*	*clefG2	*	*clefG2	*	*clefF4	*clefF4	*	*clefG2	*	*clefG2	*	*clefG2	*	*clefG2	*
*k[]	*k[]	*	*	*	*	*	*k[]	*	*k[]	*	*	*	*	*	*k[]	*k[]	*	*k[]	*	*k[]	*	*k[]	*	*k[]	*
*	*	*	*	*	*	*	*	*	*	*	*	*	*	*	*	*	*	*	*	*	*	*	*	*	*
*M3/4	*M3/4	*	*M3/4	*	*M3/4	*	*M3/4	*	*M3/4	*	*M3/4	*	*M3/4	*	*M3/4	*M3/4	*	*M3/4	*	*M3/4	*	*M3/4	*	*M3/4	*
*MM121	*MM121	*	*MM121	*	*MM121	*	*MM121	*	*MM121	*	*MM121	*	*MM121	*	*MM121	*MM121	*	*MM121	*	*MM121	*	*MM121	*	*MM121	*
=98	=98	=98	=98	=98	=98	=98	=98	=98	=98	=98	=98	=98	=98	=98	=98	=98	=98	=98	=98	=98	=98	=98	=98	=98	=98
16EEELL 16FFF#X 16FF#X	8r	<	16xLL	.	4r	.	2.r	.	2.r	.	2.r	.	2.r	.	2.r	2.r	.	2.r	.	2.r	.	2.r	.	2.r	.
16EEEn 16FFF# 16FFn 16GG	.	.	16xJ	.	.	.	.	.	.	.	.	.	.	.	.	.	.	.	.	.	.	.	.	.	.
16FFF# 16GGG 16GG 16AA	16cLL 16f 16dd	.	8xJ	.	.	.	.	.	.	.	.	.	.	.	.	.	.	.	.	.	.	.	.	.	.
16GGGJJ 16AAA 16AA 16BB	16cJJ 16f 16dd	.	.	.	.	.	.	.	.	.	.	.	.	.	.	.	.	.	.	.	.	.	.	.	.
4BBB 4FF#X 4C#X	16r	[ sf	8xL	.	4BBn	f	.	.	.	.	.	.	.	.	.	.	.	.	.	.	.	.	.	.	.
.	16ccLL 16gg 16ddd	.	.	.	.	.	.	.	.	.	.	.	.	.	.	.	.	.	.	.	.	.	.	.	.
.	16cc 16gg 16ddd	.	16xL	.	.	.	.	.	.	.	.	.	.	.	.	.	.	.	.	.	.	.	.	.	.
.	16ccJJ 16gg 16ddd	.	16xJJ	.	.	.	.	.	.	.	.	.	.	.	.	.	.	.	.	.	.	.	.	.	.
8BBL 8F#X	8cc^^L 8gg 8ddd	.	16xLL	.	4BB	.	.	.	.	.	.	.	.	.	.	.	.	.	.	.	.	.	.	.	.
.	.	.	16xJ	.	.	.	.	.	.	.	.	.	.	.	.	.	.	.	.	.	.	.	.	.	.
*clefG2	*	*	*	*	*	*	*	*	*	*	*	*	*	*	*	*	*	*	*	*	*	*	*	*	*
(8f#XJ 8cc#X	16ccL 16gg 16ddd	.	8xJ	.	.	.	.	.	.	.	.	.	.	.	.	.	.	.	.	.	.	.	.	.	.
.	16ccJJ 16gg 16ddd	.	.	.	.	.	.	.	.	.	.	.	.	.	.	.	.	.	.	.	.	.	.	.	.
=99	=99	=99	=99	=99	=99	=99	=99	=99	=99	=99	=99	=99	=99	=99	=99	=99	=99	=99	=99	=99	=99	=99	=99	=99	=99
8BL) 8f#X	8r	.	16xLL	.	8r	.	2.r	.	2.r	.	4r	.	4r	.	2.r	2.r	.	2.r	.	2.r	.	2.r	.	2.r	.
.	.	.	16xJ	.	.	.	.	.	.	.	.	.	.	.	.	.	.	.	.	.	.	.	.	.	.
*clefF4	*	*	*	*	*	*	*	*	*	*	*	*	*	*	*	*	*	*	*	*	*	*	*	*	*
(8F#XJ 8c#X	16ccLL 16gg 16ddd	.	8xJ	.	8FF#X	.	.	.	.	.	.	.	.	.	.	.	.	.	.	.	.	.	.	.	.
.	16ccJJ 16gg 16ddd	.	.	.	.	.	.	.	.	.	.	.	.	.	.	.	.	.	.	.	.	.	.	.	.
8BBL) 8F#	16r	.	16xLL	.	8r	.	.	.	.	.	8r	.	8r	.	.	.	.	.	.	.	.	.	.	.	.
.	16ccLL 16gg 16ddd	.	16xJ	.	.	.	.	.	.	.	.	.	.	.	.	.	.	.	.	.	.	.	.	.	.
(8FF#XJ 8C#X	16cc 16gg 16ddd	.	8xJ	.	8FF#	.	.	.	.	.	(8c#X	ff	(8c#X	ff	.	.	.	.	.	.	.	.	.	.	.
.	16ccJJ 16gg 16ddd	.	.	.	.	.	.	.	.	.	.	.	.	.	.	.	.	.	.	.	.	.	.	.	.
8BBBL) 8FF#	8r	.	16xLL	.	8r	.	.	.	.	.	8dL)	.	8dL)	.	.	.	.	.	.	.	.	.	.	.	.
.	.	.	16xJ	.	.	.	.	.	.	.	.	.	.	.	.	.	.	.	.	.	.	.	.	.	.
8FFF#XJ 8FF#	16cLL 16g 16dd	.	8xJ	.	8FF#	.	.	.	.	.	8fJ	.	8fJ	.	.	.	.	.	.	.	.	.	.	.	.
.	16cJJ 16g 16dd	.	.	.	.	.	.	.	.	.	.	.	.	.	.	.	.	.	.	.	.	.	.	.	.
=100	=100	=100	=100	=100	=100	=100	=100	=100	=100	=100	=100	=100	=100	=100	=100	=100	=100	=100	=100	=100	=100	=100	=100	=100	=100
8BBBBL 8BBB	8r	.	8r	.	4BB	.	2.r	.	2.r	.	8g-X^^	.	8g-X^^	.	2.r	2.r	.	2.r	.	2.r	.	2.r	.	2.r	.
16BBL 16F#X 16c#X	16cnLL 16g 16dd	.	16xLL	.	.	.	.	.	.	.	4f	.	4f	.	.	.	.	.	.	.	.	.	.	.	.
16BBJJ 16F# 16c#	16cJJ 16g 16dd	.	16xJJ	.	.	.	.	.	.	.	.	.	.	.	.	.	.	.	.	.	.	.	.	.	.
16BBLL 16F# 16c#	16cLL 16g 16dd	.	8xL	.	4BB	.	.	.	.	.	.	.	.	.	.	.	.	.	.	.	.	.	.	.	.
16BBJ 16F# 16c#	16cJ 16g 16dd	.	.	.	.	.	.	.	.	.	.	.	.	.	.	.	.	.	.	.	.	.	.	.	.
8BBJ 8F# 8c#	8cJ 8g 8dd	.	16xL	.	.	.	.	.	.	.	16eLL	.	16eLL	.	.	.	.	.	.	.	.	.	.	.	.
.	.	.	16xJJ	.	.	.	.	.	.	.	16d#XJJ	.	16d#XJJ	.	.	.	.	.	.	.	.	.	.	.	.
16BBLL 16F# 16c#	16cLL 16g 16dd	.	8xL	.	8r	.	.	.	.	.	8eL	.	8eL	.	.	.	.	.	.	.	.	.	.	.	.
16BBJ 16F# 16c#	16cJ 16g 16dd	.	.	.	.	.	.	.	.	.	.	.	.	.	.	.	.	.	.	.	.	.	.	.	.
8BBJ 8F# 8c#	8cJ 8g 8dd	.	16xL	.	8BB	.	.	.	.	.	16d#L	.	16d#L	.	.	.	.	.	.	.	.	.	.	.	.
.	.	.	16xJJ	.	.	.	.	.	.	.	16dnJJ	.	16dnJJ	.	.	.	.	.	.	.	.	.	.	.	.
=101	=101	=101	=101	=101	=101	=101	=101	=101	=101	=101	=101	=101	=101	=101	=101	=101	=101	=101	=101	=101	=101	=101	=101	=101	=101
16BBLL 16F#X 16c#X	16cLL 16g 16dd	.	8xL	.	8r	.	2.r	.	2.r	.	8e-XL	.	8e-XL	.	2.r	2.r	.	2.r	.	2.r	.	2.r	.	2.r	.
16BBJ 16F# 16c#	16cJ 16g 16dd	.	.	.	.	.	.	.	.	.	.	.	.	.	.	.	.	.	.	.	.	.	.	.	.
8BBJ 8F# 8c#	8cJ 8g 8dd	.	16xL	.	8BB	.	.	.	.	.	16dL	.	16dL	.	.	.	.	.	.	.	.	.	.	.	.
.	.	.	16xJJ	.	.	.	.	.	.	.	16c#XJJ	.	16c#XJJ	.	.	.	.	.	.	.	.	.	.	.	.
8r	8r	.	8xL	.	8r	.	.	.	.	.	16cnLL	.	16cnLL	.	.	.	.	.	.	.	.	.	.	.	.
.	.	.	.	.	.	.	.	.	.	.	16BJ	.	16BJ	.	.	.	.	.	.	.	.	.	.	.	.
16BBLL 16F#	16cLL 16g 16dd	.	8xJ	.	8FF#X	.	.	.	.	.	8cJ	.	8cJ	.	.	.	.	.	.	.	.	.	.	.	.
16BBJJ 16F#	16cJJ 16g 16dd	.	.	.	.	.	.	.	.	.	.	.	.	.	.	.	.	.	.	.	.	.	.	.	.
8BBL 8F#	8d-XL 8a-X 8ee-X	.	8xL	.	8BBL	.	.	.	.	.	8d-X^^L	.	8d-X^^L	.	.	.	.	.	.	.	.	.	.	.	.
(24C#XL	(24cL	.	16xL	.	8FF#J	.	.	.	.	.	[8B-XJ	.	[8B-XJ	.	.	.	.	.	.	.	.	.	.	.	.
24FF#X	24g	.	.	.	.	.	.	.	.	.	.	.	.	.	.	.	.	.	.	.	.	.	.	.	.
.	.	.	16xJJ	.	.	.	.	.	.	.	.	.	.	.	.	.	.	.	.	.	.	.	.	.	.
24BBBJJ	24ddnJJ	.	.	.	.	.	.	.	.	.	.	.	.	.	.	.	.	.	.	.	.	.	.	.	.
=102	=102	=102	=102	=102	=102	=102	=102	=102	=102	=102	=102	=102	=102	=102	=102	=102	=102	=102	=102	=102	=102	=102	=102	=102	=102
8BBBL) 8BB	8ccL) 8gg 8ddd	.	8xL	.	4BB	.	2.r	.	2.r	.	8B-L]	.	8B-L]	.	2.r	2.r	.	2.r	.	2.r	.	2.r	.	2.r	.
(8F#XJ 8c#X	16cnL 16g 16dd	.	16xL	.	.	.	.	.	.	.	16AL	.	16AL	.	.	.	.	.	.	.	.	.	.	.	.
.	16cJJ 16g 16dd	.	16xJJ	.	.	.	.	.	.	.	16BnJJ	.	16BnJJ	.	.	.	.	.	.	.	.	.	.	.	.
8BBL) 8F#	16r	.	8xL	.	4BB	.	.	.	.	.	8cL	.	8cL	.	.	.	.	.	.	.	.	.	.	.	.
.	16cLL 16g 16dd	.	.	.	.	.	.	.	.	.	.	.	.	.	.	.	.	.	.	.	.	.	.	.	.
(8FF#XJ 8C#X	16c 16g 16dd	.	16xL	.	.	.	.	.	.	.	16B-XL	.	16B-XL	.	.	.	.	.	.	.	.	.	.	.	.
.	16cJJ 16g 16dd	.	16xJJ	.	.	.	.	.	.	.	16A-XJJ	.	16A-XJJ	.	.	.	.	.	.	.	.	.	.	.	.
8BBBL) 8FF#	8cL 8g 8dd	.	8xL	.	8r	.	.	.	.	.	16GLL	.	16GLL	.	.	.	.	.	.	.	.	.	.	.	.
.	.	.	.	.	.	.	.	.	.	.	16FJ	.	16FJ	.	.	.	.	.	.	.	.	.	.	.	.
(8F#J 8c#	16cL 16g 16dd	.	8xJ	.	8BB	.	.	.	.	.	8GJ	.	8GJ	.	.	.	.	.	.	.	.	.	.	.	.
.	16cJJ 16g 16dd	.	.	.	.	.	.	.	.	.	.	.	.	.	.	.	.	.	.	.	.	.	.	.	.
=103	=103	=103	=103	=103	=103	=103	=103	=103	=103	=103	=103	=103	=103	=103	=103	=103	=103	=103	=103	=103	=103	=103	=103	=103	=103
8BBL) 8F#X	16r	.	16xLL	.	4r	.	8A^^	f	4r	.	8An^^	.	8An	.	2.r	2.r	.	2.r	.	2.r	.	2.r	.	2.r	.
.	16cLL 16g 16dd	.	16xJ	.	.	.	.	.	.	.	.	.	.	.	.	.	.	.	.	.	.	.	.	.	.
(8FF#XJ 8C#X	16c 16g 16dd	.	8xJ	.	.	.	4F#X	.	.	.	4F#X	.	8r	.	.	.	.	.	.	.	.	.	.	.	.
.	16cJJ 16g 16dd	.	.	.	.	.	.	.	.	.	.	.	.	.	.	.	.	.	.	.	.	.	.	.	.
8BBBL) 8FF#	16r	.	8xL	.	8BBL	.	.	.	8r	.	.	.	4r	.	.	.	.	.	.	.	.	.	.	.	.
.	16cLL 16g 16dd	.	.	.	.	.	.	.	.	.	.	.	.	.	.	.	.	.	.	.	.	.	.	.	.
8BBJ 8F#	16c 16g 16dd	.	16xL	.	8FF#XJ	.	8r	.	16FLL	f	16FnLL	.	.	.	.	.	.	.	.	.	.	.	.	.	.
.	16cJJ 16g 16dd	.	16xJJ	.	.	.	.	.	16GJJ	.	16GJJ	.	.	.	.	.	.	.	.	.	.	.	.	.	.
16r	8cL 8g 8dd	.	8xL	.	4r	.	16G#XLL	.	8A#X	.	16G#XLL	.	8r	.	.	.	.	.	.	.	.	.	.	.	.
16AAA-XLL 16EE-X 16BB-X	.	.	.	.	.	.	16F#XJ	.	.	.	16F#XJ	.	.	.	.	.	.	.	.	.	.	.	.	.	.
16BBB-X 16FFn 16Cn	24cL	<	16xL	.	.	.	8EJ	.	8r	.	8EJ	.	(8G#X 8g#X	ff	.	.	.	.	.	.	.	.	.	.	.
.	24g	.	.	.	.	.	.	.	.	.	.	.	.	.	.	.	.	.	.	.	.	.	.	.	.
16CCJJ 16GG 16D	.	.	16xJJ	.	.	.	.	.	.	.	.	.	.	.	.	.	.	.	.	.	.	.	.	.	.
.	24ddJJ	.	.	.	.	.	.	.	.	.	.	.	.	.	.	.	.	.	.	.	.	.	.	.	.
=104	=104	=104	=104	=104	=104	=104	=104	=104	=104	=104	=104	=104	=104	=104	=104	=104	=104	=104	=104	=104	=104	=104	=104	=104	=104
8DDL 8AA 8E	8ffL 8ccc 8ggg	[ sf	16xLL	.	4D	.	2.r	.	8F^^L	.	8Fn^^L	.	8AL) 8a	.	2.DDD	4r	.	4r	.	4r	.	4r	.	2.r	.
.	.	.	16xJ	.	.	.	.	.	.	.	.	.	.	.	.	.	.	.	.	.	.	.	.	.	.
(8AJ 8e	16cL 16g 16dd	.	8xJ	.	.	.	.	.	8BB-XJ	.	[8BB-XJ	.	8cJ 8cc	.	.	.	.	.	.	.	.	.	.	.	.
.	16cJJ 16g 16dd	.	.	.	.	.	.	.	.	.	.	.	.	.	.	.	.	.	.	.	.	.	.	.	.
8DL) 8A	8r	.	8r	.	4D	.	.	.	4r	.	2BB-_	.	8d-X^^ 8dd-X	.	.	8r	.	8r	.	8r	.	8r	.	.	.
*	*	*	*	*	*	*	*	*	*	*	*	*	*	*	*	*clefC4	*	*	*	*	*	*	*	*	*
(8AAJ 8E	16cLL 16g 16dd	.	16xLL	.	.	.	.	.	.	.	.	.	4c 4cc	.	.	(8d	ff	(8dd	ff	(8d 8dd	ff	(8dd	f	.	.
.	16cJJ 16g 16dd	.	16xJJ	.	.	.	.	.	.	.	.	.	.	.	.	.	.	.	.	.	.	.	.	.	.
8DDL) 8AA	16cLL 16g 16dd	.	8xL	.	8r	.	.	.	4r	.	.	.	.	.	.	8e-XL)	.	8ee-XL)	.	8e-XL) 8ee-X	.	8ee-XL)	.	.	.
.	16cJ 16g 16dd	.	.	.	.	.	.	.	.	.	.	.	.	.	.	.	.	.	.	.	.	.	.	.	.
(8AAAJ 8EE	8cJ 8g 8dd	.	16xL	.	8AA	.	.	.	.	.	.	.	16c-XLL 16cc-X	.	.	8f#XJ	.	8ff#XJ	.	8f#XJ 8ff#X	.	8ff#XJ	.	.	.
.	.	.	16xJJ	.	.	.	.	.	.	.	.	.	16B-XJJ 16b-X	.	.	.	.	.	.	.	.	.	.	.	.
=105	=105	=105	=105	=105	=105	=105	=105	=105	=105	=105	=105	=105	=105	=105	=105	=105	=105	=105	=105	=105	=105	=105	=105	=105	=105
8DDDL) 8AAA	8r	.	8xL	.	4D	.	2.r	.	2.r	.	8BB-L]	.	8c-XL 8cc-X	.	2.DD	8g^^	.	8gg^^	.	8g^^ 8gg	.	8gg^^	.	2.r	.
(8AJ 8e	8c 8g 8dd	.	16xL	.	.	.	.	.	.	.	8FJ	.	16B-XL 16b-X	.	.	4f#X	.	4ff#X	.	4f#X 4ff#X	.	4ff#X	.	.	.
.	.	.	16xJJ	.	.	.	.	.	.	.	.	.	16AJJ 16a	.	.	.	.	.	.	.	.	.	.	.	.
8DL) 8A	8r	.	8xL	.	4D	.	.	.	.	.	8B-XL	.	8B-L 8b-	.	.	.	.	.	.	.	.	.	.	.	.
(8AAJ 8E	8c 8g 8dd	.	16xL	.	.	.	.	.	.	.	16AL	.	16aL	.	.	16fnLL	.	16ffnLL	.	16fnLL 16ffn	.	16ffnLL	.	.	.
.	.	.	16xJJ	.	.	.	.	.	.	.	16A-XJJ	.	16a-XJJ	.	.	16enJJ	.	16eenJJ	.	16enJJ 16een	.	16eenJJ	.	.	.
8DDL) 8AA	8r	.	16xLL	.	8r	.	.	.	.	.	16GLL	.	16gLL	.	.	8fL	.	8ffL	.	8fL 8ff	.	8ffL	.	.	.
.	.	.	16x	.	.	.	.	.	.	.	16F#XJ	.	16f#XJ	.	.	.	.	.	.	.	.	.	.	.	.
(8AAAJ 8EE	16cLL 16g 16dd	.	16x	.	8AA	.	.	.	.	.	8GJ	.	8gJ	.	.	16eL	.	16eeL	.	16eL 16ee	.	16eeL	.	.	.
.	16cJJ 16g 16dd	.	16xJJ	.	.	.	.	.	.	.	.	.	.	.	.	16d#XJJ	.	16ee-XJJ	.	16d#XJJ 16dd#X	.	16dd#XJJ	.	.	.
=106	=106	=106	=106	=106	=106	=106	=106	=106	=106	=106	=106	=106	=106	=106	=106	=106	=106	=106	=106	=106	=106	=106	=106	=106	=106
*	*	*	*	*	*	*	*	*	*	*	*	*	*^	*	*	*	*	*	*	*	*	*	*	*	*
8DDDL) 8AAA	16cLL 16g 16dd	.	8xL	.	4D	.	2.r	.	2.r	.	8A-X^^	.	[2.B-X	8a-X^^	.	[2.DD	8eL	.	8eenL	.	8eL 8ee	.	8eeL	.	2.r	.
.	16cJ 16g 16dd	.	.	.	.	.	.	.	.	.	.	.	.	.	.	.	.	.	.	.	.	.	.	.	.	.
(8AJ 8e	8cJ 8g 8dd	.	16xL	.	.	.	.	.	.	.	4F	.	.	4f	.	.	16e-XL	.	16ee-XL	.	16e-XL 16ee-X	.	16ee-XL	.	.	.
.	.	.	16xJJ	.	.	.	.	.	.	.	.	.	.	.	.	.	16dJJ	.	16ddJJ	.	16dnJJ 16ddn	.	16ddnJJ	.	.	.
8DL) 8A	8r	.	8xL	.	4D	.	.	.	.	.	.	.	.	.	.	.	16c#XLL	.	16dd-XLL	.	16c#XLL 16cc#X	.	16cc#XLL	.	.	.
.	.	.	.	.	.	.	.	.	.	.	.	.	.	.	.	.	16B#XJ	.	16ccJ	.	16B#XJ 16b#X	.	16b#XJ	.	.	.
(8AAJ 8E	16cLL 16g 16dd	.	16xL	.	.	.	.	.	.	.	8G-X	.	.	8g-X	.	.	8c#J	.	8dd-J	.	8c#J 8cc#	.	8cc#J	.	.	.
.	16cJJ 16g 16dd	.	16xJJ	.	.	.	.	.	.	.	.	.	.	.	.	.	.	.	.	.	.	.	.	.	.	.
8DDL) 8AA	16cLL 16g 16dd	.	8xL	.	8r	.	.	.	.	.	4E-X	.	.	4e-X	.	.	8d^^L	.	8ddn^^L	.	8d^^L 8dd	.	8dd^^L	.	.	.
.	16cJ 16g 16dd	.	.	.	.	.	.	.	.	.	.	.	.	.	.	.	.	.	.	.	.	.	.	.	.	.
(8AJ 8e	8cJ 8g 8dd	.	8xJ	.	8AA	.	.	.	.	.	.	.	.	.	.	.	[8BnJ	.	[8bJ	.	[8BnJ [8bn	.	[8bnJ	.	.	.
=107	=107	=107	=107	=107	=107	=107	=107	=107	=107	=107	=107	=107	=107	=107	=107	=107	=107	=107	=107	=107	=107	=107	=107	=107	=107	=107
8DL) 8A	8ccL 8gg 8ddd	.	16xLL	.	8DL	.	2.r	.	2.r	.	8F-X^^	.	2.B-]	8f-X^^	.	2.DD]	8BL]	.	8bL]	.	8BL] 8b]	.	8bL]	.	4r	.
.	.	.	16xJ	.	.	.	.	.	.	.	.	.	.	.	.	.	.	.	.	.	.	.	.	.	.	.
*	*	*	*	*	*	*	*	*	*	*	*	*	*	*	*	*	*clefF4	*	*	*	*	*	*	*	*	*
(8AAJ 8E	8cJ 8g 8dd	.	8xJ	.	16AAL	.	.	.	.	.	4D-X	.	.	4d-X	.	.	8cJ	.	8ccJ	.	8ccnJ	.	8ccnJ	.	.	.
.	.	.	.	.	16AAJJ	.	.	.	.	.	.	.	.	.	.	.	.	.	.	.	.	.	.	.	.	.
8DDL) 8AA	8r	.	16xLL	.	8DL	.	.	.	.	.	.	.	.	.	.	.	4A	.	4a	.	4a	.	4a	.	4r	.
.	.	.	16xJ	.	.	.	.	.	.	.	.	.	.	.	.	.	.	.	.	.	.	.	.	.	.	.
8DJ 8A 8e	16cLL 16g 16dd	.	8xJ	.	16AAL	.	.	.	.	.	8BB-X	.	.	8B-X	.	.	.	.	.	.	.	.	.	.	.	.
.	16cJJ 16g 16dd	.	.	.	16AAJJ	.	.	.	.	.	.	.	.	.	.	.	.	.	.	.	.	.	.	.	.	.
16r	8cL 8g 8dd	.	8r	.	16DLL	.	.	.	.	.	4D-	.	.	4d-	.	.	8F#X^^L	.	8f#X^^L	.	8r	.	8r	.	8r	.
16EELL 16E	.	.	.	.	16DJ	.	.	.	.	.	.	.	.	.	.	.	.	.	.	.	.	.	.	.	.	.
16DD 16D	8ccJ 8gg 8ddd	.	8xt	<[	8DJ	.	.	.	.	.	.	.	.	.	.	.	(8dJ)	.	(8ddJ)	.	(8a)	.	(8dd)	ff	(8ddd)	ff
16CCJJ 16C	.	.	.	.	.	.	.	.	.	.	.	.	.	.	.	.	.	.	.	.	.	.	.	.	.	.
*	*	*	*	*	*	*	*	*	*	*	*	*	*v	*v	*	*	*	*	*	*	*	*	*	*	*	*
=	=	=	=	=	=	=	=	=	=	=	=	=	=	=	=	=	=	=	=	=	=	=	=	=	=
*-	*-	*-	*-	*-	*-	*-	*-	*-	*-	*-	*-	*-	*-	*-	*-	*-	*-	*-	*-	*-	*-	*-	*-	*-	*-
!!!system-decoration: [(s1,s2,s3,s4,s5,s6)][(s7,s8,s9,s10)][(s11)]s12{(s13,s14)}
!!!CDT: 1881/03/25-1945/09/26
!!!CBL: Sînnicolau Mare (Nagyszentmiklós), Romania (Hungary)
!!!CDL: New York, United States
!!!CNT: Hungarian
!!!AGN: Orchestral; Concerto
!!!MCN: Rosbaud, Hans
!!!MDT: 1933/01/23
!!!MGN: unknown
!!!MLC: Frankfurt, Germany
!!!MPD: 1933
!!!MPN: Bartók, Béla
!!!ODT: 1931
!!!PDT: 1932
!!!excerpt-start-measure: 98
!!!excerpt-end-measure: 107
!!!excerpt-start-time: 2:55
!!!excerpt-end-time: 3:12
!!!EEV: 2020/01/27
!!!ONB: Converted from MusicXML on 2020/01/27
